assets/icons/navigation/arrow_downward.svg

<svg viewBox="0 0 24 24" xmlns="http://www.w3.org/2000/svg">
<path d="M17.7403 14.2911C17.3848 13.9328 16.8107 13.9328 16.4553 14.2911L12.9102 17.8557V3.91872C12.9102 3.41342 12.5001 3 11.9989 3C11.4976 3 11.0875 3.41342 11.0875 3.91872V17.8649L7.55155 14.3002C7.19613 13.9419 6.62199 13.9419 6.26657 14.3002C5.91114 14.6585 5.91114 15.2373 6.26657 15.5956L11.3609 20.7313C11.7163 21.0896 12.2905 21.0896 12.6459 20.7313L17.7403 15.5956C18.0866 15.2373 18.0866 14.6494 17.7403 14.2911Z" fill="inherit"/>
</svg>

<svg viewBox="0 0 24 24" xmlns="http://www.w3.org/2000/svg"><path d="M17.7 14.3a.9.9 0 0 0-1.2 0l-3.6 3.6v-14c0-.5-.4-.9-.9-.9a1 1 0 0 0-1 1v13.9l-3.4-3.6a.9.9 0 0 0-1.3 0 1 1 0 0 0 0 1.3l5 5.1c.4.4 1 .4 1.3 0l5.1-5.1c.4-.4.4-1 0-1.3Z" fill="inherit"/></svg>
